X: 1
T: Gallagher's Frolics
R: jig
M: 6/8
L: 1/8
K: Edor
D|:~E3 GFE|~B3 dBA|BdB BAB|GBG AFD|
|~E3 GFE| BAB dBA|BAG FAF|1 GEE E2 D:|2 GEE E2 e|
|:e2 g gfe|g2 b bge|dcd fed|fad fed|
|e2 f gfe|dfe dBA|BAG FAF|1 GEE E2 e:|2 GEE E2 D|


Tune 160	Setting 12784

